X:1
T:Den lieben langen tag
T:Melchior Franck
T:Source : Tricinia nova---Nürnberg---A.Wagenmann---1611. Editor : André Vierendeels (29/03/17).
T:Notes : Original clefs : C1, C1, F4 Editorial accidentals above the staff Text Middle German
T:Den lieben langen tag
T:©
T:©
T:©
C:Melchior Franck
Z:©
%%score [ 1 2 3 ]
L:1/8
Q:1/4=100
M:2/2
K:C
V:1 treble nm="Soprano 1" snm="S 1"
V:2 treble nm="Soprano 2" snm="S 2"
V:3 bass nm="Bass" snm="B"
V:1
"^1)" z4 d4 | e4 ^c2 d2- | d2 B2 A2 A2 | c4 B4 | G4 c4 |[M:2/4] B4 ::[M:2/2] z2 ^G2 G2 G2 | %7
w: Den|lie- ben lan-|* gen tag, führ|ich ein|stät- te|klag,|und wenn ich|
w: Du|lieb- stes lie-|* be- lein, wer|wolt dir|doch feind|sein,|du bist wol|
 ^G2 A2 B4 | B2 d2 edcB | A2 B4 c2- | c2 d4 c2- | c2 B2 c2 c2 | A6 A2 | A2 B2 c4 | c2 d3 A B2 | %15
w: denn soll schla-|ffen, so gibt _ _ _|_ mirs noch|_ zu scha-|* * ffen, solch|gro- ssen|schmerz und pei-|ne, gibt mir die|
w: werth der Eh-|re, dasz dich _ _ _|_ ein gros-|* ser Hert-|* * ze, so|hert- zig-|li- chen lie-|be, als ich gegn-|
 ^F2 G2 A3 G |"^-natural" FE D3 A, D2- | D2 ^C2 D4 | z2 d3 A B2 | B3 c d2 c2 | A4 !fermata!B4 :| %21
w: lieb- ste mei- *||* * ne,|gibt mir die|lieb- * * ste|mei- ne.|
w: dir mich ü- *||* * be,|als ich gegn|dir _ _ mich|ü- be.|
V:2
"^2)""^1)" z4 B4 | c2 G2 A4- |"^-natural" A2 G2 F2 F2 | E3 F G2 D2- | D2 G4 ^F2 |[M:2/4] G4 :: %6
w: Den|lie- ben lan-|* gen tag, führ|ich _ _ ein|_ stät- te|klag,|
w: Ge-|denck der seuff-|* tzen grosz, die|mich _ _ ohn|_ un- ter-|lasz|
[M:2/2] z2 B2 B2 B2 | B2 c2 d4 | d2 B2 cBAG | F4 G4 | A3 A B2 c2 | d4 c4 | z2 A2 ^F3 F | %13
w: und wenn ich|denn soll schla-|ffen, so gibt _ _ _|_ mirs|noch _ _ zu|scha- ffen,|solch gros- sen|
w: an Leib und|Hertz kranck ma-|chen, vil- leicht _ _ _|_ thust|du _ _ nur|la- chen,|wenn ich so|
 ^F2 G2 A4 | G4 z2 d2- | dA B2 ^F3 G |"^-natural" A2 G2 A2 GF | E4 D2 d2- | dA B2 ^F2 D2- | %19
w: schmerz und pei-|ne, gibt|_ mir die lieb- ste|mei- * * * *|* ne, gibt|_ mir die lieb- *|
w: streng thu kla-|gen, dasz|_ ich kein wort _|_ kan sa- * *|* gen, dasz|_ ich kein wort, dasz|
 D^F G2 G2 G2 | ^F4 !fermata!G4 :| %21
w: * ste, die lieb- ste|mei- ne.|
w: _ ich kein wort kan|sa- gen.|
V:3
"^3)""^1)""^4)" G,8 | C4 A,2 ^F,2- | F,2 G,2 D,2 D,2 | A,,B,,C,D, E,F,G,A, | B,2 C2 A,2 A,2 | %5
w: Den|lie- ben lan-|* gen tag, führ|ich _ _ _ _ _ _ _|_ ein stät- te|
w: Doch|lasz ich drumb|_ nit ab von|dir _ _ _ _ _ _ _|_ dich stets lieb|
[M:2/4] G,4 ::[M:2/2] z2 E,2 E,2 E,2 |"^-natural" E,2 A,,2 G,,4 | G,,2 G,,2 C,4 | D,4 E,4 | %10
w: klag,|und wenn ich|denn soll schla-|ffen, so gibt|mirs noch|
w: hab,|als den treft|mei- nes Hert-|zen, so mir|be- nim-|
 F,4 G,4- | G,4 C,4 |"^-natural" z2 F,2 D,3 D, |"^-natural" D,2 G,2 F,4 | C,2 G,2 ^F,2 G,2 | %15
w: zu scha-|* ffen,|solch gros- sen|schmerz und pei-|ne, gibt mir die|
w: met schmer-|* zen,|du wirst ein-|mal in eh-|ren, mich mei- ner|
 D,4 z2 D,2- | D,A,, B,,2 ^F,,2 G,,2 | A,,4 D,4- | D,4 z2 G,2- | G,D, E,2 B,,2 C,2 | %20
w: liebst', gibt|_ mir die lieb- ste|mei- ne,|_ gibt|_ mir die lieb- ste|
w: lieb, mich|_ mei- ner lieb ge-|weh- ren,|_ dasz|_ ich kein wort kan|
 D,4 !fermata!G,,4 :| %21
w: mei- ne|
w: sa- gen.|

